svg/briefcase_variant_outline.svg

<svg xmlns="http://www.w3.org/2000/svg" viewBox="0 0 24 24"><path d="M20 7h-4V5l-2-2h-4L8 5v2H4c-1.1 0-2 .9-2 2v5c0 .75.4 1.38 1 1.73V19c0 1.11.89 2 2 2h14c1.11 0 2-.89 2-2v-3.28c.59-.35 1-.99 1-1.72V9c0-1.1-.9-2-2-2M10 5h4v2h-4zM4 9h16v5h-5v-3H9v3H4zm9 6h-2v-2h2zm6 4H5v-3h4v1h6v-1h4z"/></svg>

<?xml version="1.0" encoding="UTF-8"?><!DOCTYPE svg PUBLIC "-//W3C//DTD SVG 1.1//EN" "http://www.w3.org/Graphics/SVG/1.1/DTD/svg11.dtd"><svg xmlns="http://www.w3.org/2000/svg" xmlns:xlink="http://www.w3.org/1999/xlink" version="1.1" id="mdi-briefcase-variant-outline" width="24" height="24" viewBox="0 0 24 24"><path d="M20 7H16V5L14 3H10L8 5V7H4C2.9 7 2 7.9 2 9V14C2 14.75 2.4 15.38 3 15.73V19C3 20.11 3.89 21 5 21H19C20.11 21 21 20.11 21 19V15.72C21.59 15.37 22 14.73 22 14V9C22 7.9 21.1 7 20 7M10 5H14V7H10V5M4 9H20V14H15V11H9V14H4V9M13 15H11V13H13V15M19 19H5V16H9V17H15V16H19V19Z" /></svg>
